actions/32/list-add.svg

<?xml version="1.0" encoding="UTF-8" standalone="no"?>
<svg
   xmlns:dc="http://purl.org/dc/elements/1.1/"
   xmlns:cc="http://creativecommons.org/ns#"
   xmlns:rdf="http://www.w3.org/1999/02/22-rdf-syntax-ns#"
   xmlns:svg="http://www.w3.org/2000/svg"
   xmlns="http://www.w3.org/2000/svg"
   xmlns:xlink="http://www.w3.org/1999/xlink"
   id="svg3658"
   height="32"
   width="32"
   version="1.1">
  <defs
     id="defs3660">
    <linearGradient
       id="linearGradient4011">
      <stop
         offset="0"
         style="stop-color:#ffffff;stop-opacity:1"
         id="stop4013" />
      <stop
         offset="0.507761"
         style="stop-color:#ffffff;stop-opacity:0.23529412"
         id="stop4015" />
      <stop
         offset="0.83456558"
         style="stop-color:#ffffff;stop-opacity:0.15686275"
         id="stop4017" />
      <stop
         offset="1"
         style="stop-color:#ffffff;stop-opacity:0.39215687"
         id="stop4019" />
    </linearGradient>
    <linearGradient
       y2="44.340794"
       x2="71.204407"
       y1="6.2375584"
       x1="71.204407"
       gradientTransform="matrix(0.72972967,0,0,0.72972967,-36.346078,-2.5039291)"
       gradientUnits="userSpaceOnUse"
       id="linearGradient3017"
       xlink:href="#linearGradient4011" />
    <radialGradient
       r="20.397499"
       fy="4.0384412"
       fx="21.994528"
       cy="4.0384412"
       cx="21.994528"
       gradientTransform="matrix(0,2.0590762,-2.7179439,0,26.844604,-48.288409)"
       gradientUnits="userSpaceOnUse"
       id="radialGradient3022"
       xlink:href="#linearGradient3242-7-3-8-0-4-58-06" />
    <linearGradient
       id="linearGradient3820-7-2-2">
      <stop
         offset="0"
         style="stop-color:#3d3d3d;stop-opacity:1"
         id="stop3822-2-6-36" />
      <stop
         offset="0.5"
         style="stop-color:#686868;stop-opacity:0.49803922"
         id="stop3864-8-7-6" />
      <stop
         offset="1"
         style="stop-color:#686868;stop-opacity:0"
         id="stop3824-1-2-4" />
    </linearGradient>
    <radialGradient
       r="62.769119"
       fy="186.17059"
       fx="99.157013"
       cy="186.17059"
       cx="99.157013"
       gradientTransform="matrix(0.17524541,0,0,0.05575992,-1.3768101,18.11895)"
       gradientUnits="userSpaceOnUse"
       id="radialGradient4048"
       xlink:href="#linearGradient3820-7-2-2" />
    <linearGradient
       id="linearGradient3242-7-3-8-0-4-58-06">
      <stop
         id="stop3244-5-8-5-6-4-3-8"
         style="stop-color:#cdf87e;stop-opacity:1"
         offset="0" />
      <stop
         id="stop3246-9-5-1-5-3-0-7"
         style="stop-color:#a2e34f;stop-opacity:1"
         offset="0.26238" />
      <stop
         id="stop3248-7-2-0-7-5-35-9"
         style="stop-color:#68b723;stop-opacity:1"
         offset="0.66093999" />
      <stop
         id="stop3250-8-2-8-5-6-40-4"
         style="stop-color:#1d7e0d;stop-opacity:1"
         offset="1" />
    </linearGradient>
  </defs>
  <metadata
     id="metadata3663">
    <rdf:RDF>
      <cc:Work
         rdf:about="">
        <dc:format>image/svg+xml</dc:format>
        <dc:type
           rdf:resource="http://purl.org/dc/dcmitype/StillImage" />
        <dc:title></dc:title>
      </cc:Work>
    </rdf:RDF>
  </metadata>
  <path
     style="fill:url(#radialGradient4048);fill-opacity:1;stroke:none"
     id="path3818-0-2"
     d="m 27.000001,28.499804 a 11,3.4999999 0 1 1 -21.9999997,0 11,3.4999999 0 1 1 21.9999997,0 z" />
  <path
     d="m 16.000001,1.5017981 c -7.9996071,0 -14.4982031,6.4985937 -14.4982031,14.4982009 0,7.999609 6.498596,14.498206 14.4982031,14.498203 7.999605,0 14.498209,-6.498594 14.498201,-14.498203 0,-7.9996072 -6.498596,-14.4982009 -14.498201,-14.4982009 z"
     id="path2555"
     style="fill:url(#radialGradient3022);fill-opacity:1.0;stroke:none;stroke-width:1.00365412;stroke-linecap:round;stroke-linejoin:round;stroke-miterlimit:4;stroke-opacity:1;stroke-dasharray:none;stroke-dashoffset:0" />
  <path
     d="M 29.5,15.999522 C 29.5,23.455606 23.455399,29.5 16.000171,29.5 8.5442604,29.5 2.5,23.455537 2.5,15.999522 2.5,8.5437833 8.5442604,2.5000024 16.000171,2.5000024 23.455399,2.5000024 29.5,8.5437833 29.5,15.999522 l 0,0 z"
     id="path8655-6"
     style="opacity:0.7;color:#000000;fill:none;stroke:url(#linearGradient3017);stroke-width:0.99999994;stroke-linecap:round;stroke-linejoin:round;stroke-miterlimit:4;stroke-opacity:1;stroke-dasharray:none;stroke-dashoffset:0;marker:none;visibility:visible;display:inline;overflow:visible;enable-background:accumulate" />
  <path
     d="m 16.000001,1.5017981 c -7.9996071,0 -14.4982031,6.4985937 -14.4982031,14.4982009 0,7.999609 6.498596,14.498206 14.4982031,14.498203 7.999605,0 14.498209,-6.498594 14.498201,-14.498203 0,-7.9996072 -6.498596,-14.4982009 -14.498201,-14.4982009 z"
     id="path2555-4"
     style="fill:none;fill-opacity:1;stroke:#0f5a00;stroke-width:1;stroke-linecap:round;stroke-linejoin:round;stroke-miterlimit:4;stroke-opacity:1;stroke-dasharray:none;stroke-dashoffset:0;opacity:0.5;color:#000000;marker:none;visibility:visible;display:inline;overflow:visible;enable-background:accumulate;clip-rule:nonzero;isolation:auto;mix-blend-mode:normal;color-interpolation:sRGB;color-interpolation-filters:linearRGB;solid-color:#000000;solid-opacity:1;fill-rule:nonzero;filter-blend-mode:normal;filter-gaussianBlur-deviation:0;color-rendering:auto;image-rendering:auto;shape-rendering:auto;text-rendering:auto" />
  <path
     d="M 14.066406,7.953125 A 1.0468336,1.0468336 0 0 0 13.019531,9 l 0,5.019531 -5.019531,0 a 1.0468336,1.0468336 0 0 0 -1.046875,1.046875 l 0,3.867188 A 1.0468336,1.0468336 0 0 0 8,19.980469 l 5.019531,0 0,5.019531 a 1.0468336,1.0468336 0 0 0 1.046875,1.046875 l 3.867188,0 A 1.0468336,1.0468336 0 0 0 18.980469,25 l 0,-5.019531 5.019531,0 a 1.0468336,1.0468336 0 0 0 1.046875,-1.046875 l 0,-3.867188 A 1.0468336,1.0468336 0 0 0 24,14.019531 l -5.019531,0 0,-5.019531 A 1.0468336,1.0468336 0 0 0 17.933594,7.953125 l -3.867188,0 z"
     id="path4432"
     style="color:#000000;clip-rule:nonzero;display:inline;overflow:visible;visibility:visible;opacity:0.15;isolation:auto;mix-blend-mode:normal;color-interpolation:sRGB;color-interpolation-filters:linearRGB;solid-color:#000000;solid-opacity:1;fill:#206612;fill-opacity:1;fill-rule:evenodd;stroke:none;stroke-width:1;stroke-linecap:butt;stroke-linejoin:miter;stroke-miterlimit:4;stroke-dasharray:none;stroke-dashoffset:0;stroke-opacity:1;marker:none;color-rendering:auto;image-rendering:auto;shape-rendering:auto;text-rendering:auto;enable-background:accumulate" />
  <path
     style="color:#000000;display:inline;overflow:visible;visibility:visible;fill:#206612;fill-opacity:1;fill-rule:evenodd;stroke:none;stroke-width:1;marker:none;enable-background:accumulate;clip-rule:nonzero;opacity:0.3;isolation:auto;mix-blend-mode:normal;color-interpolation:sRGB;color-interpolation-filters:linearRGB;solid-color:#000000;solid-opacity:1;stroke-linecap:butt;stroke-linejoin:miter;stroke-miterlimit:4;stroke-dasharray:none;stroke-dashoffset:0;stroke-opacity:1;filter-blend-mode:normal;filter-gaussianBlur-deviation:0;color-rendering:auto;image-rendering:auto;shape-rendering:auto;text-rendering:auto"
     id="rect3007-3"
     d="m 14.066667,9 0,6.066667 -6.066667,0 0,3.866666 6.066667,0 0,6.066667 3.866666,0 0,-6.066667 6.066667,0 0,-3.866666 -6.066667,0 0,-6.066667 z" />
  <path
     style="color:#000000;display:inline;overflow:visible;visibility:visible;fill:#ffffff;fill-opacity:1;fill-rule:evenodd;stroke:none;stroke-width:1;marker:none;enable-background:accumulate"
     id="rect3007"
     d="m 14.066667,8 0,6.066667 -6.066667,0 0,3.866666 6.066667,0 0,6.066667 3.866666,0 0,-6.066667 6.066667,0 0,-3.866666 -6.066667,0 0,-6.066667 z" />
</svg>

<svg xmlns="http://www.w3.org/2000/svg" xmlns:xlink="http://www.w3.org/1999/xlink" viewBox="0 0 32 32"><defs><linearGradient id="a"><stop offset="0" stop-color="#fff"/><stop offset=".508" stop-color="#fff" stop-opacity=".235"/><stop offset=".835" stop-color="#fff" stop-opacity=".157"/><stop offset="1" stop-color="#fff" stop-opacity=".392"/></linearGradient><linearGradient y2="44.341" x2="71.204" y1="6.238" x1="71.204" gradientTransform="translate(-36.346 -2.504) scale(.72973)" gradientUnits="userSpaceOnUse" id="f" xlink:href="#a"/><radialGradient r="20.397" fy="4.038" fx="21.995" cy="4.038" cx="21.995" gradientTransform="matrix(0 2.05908 -2.71794 0 26.845 -48.288)" gradientUnits="userSpaceOnUse" id="e" xlink:href="#b"/><linearGradient id="c"><stop offset="0" stop-color="#3d3d3d"/><stop offset=".5" stop-color="#686868" stop-opacity=".498"/><stop offset="1" stop-color="#686868" stop-opacity="0"/></linearGradient><radialGradient r="62.769" fy="186.171" fx="99.157" cy="186.171" cx="99.157" gradientTransform="matrix(.17525 0 0 .05576 -1.377 18.12)" gradientUnits="userSpaceOnUse" id="d" xlink:href="#c"/><linearGradient id="b"><stop offset="0" stop-color="#cdf87e"/><stop offset=".262" stop-color="#a2e34f"/><stop offset=".661" stop-color="#68b723"/><stop offset="1" stop-color="#1d7e0d"/></linearGradient></defs><path d="M27 28.5a11 3.5 0 1 1-22 0 11 3.5 0 1 1 22 0z" fill="url(#d)"/><path d="M16 1.502C8 1.502 1.502 8 1.502 16 1.502 24 8 30.498 16 30.498 24 30.498 30.498 24 30.498 16 30.498 8 24 1.502 16 1.502z" fill="url(#e)"/><path d="M29.5 16c0 7.456-6.045 13.5-13.5 13.5-7.456 0-13.5-6.044-13.5-13.5S8.544 2.5 16 2.5c7.455 0 13.5 6.044 13.5 13.5z" opacity=".7" color="#000" fill="none" stroke="url(#f)" stroke-linecap="round" stroke-linejoin="round" overflow="visible"/><path d="M16 1.502C8 1.502 1.502 8 1.502 16 1.502 24 8 30.498 16 30.498 24 30.498 30.498 24 30.498 16 30.498 8 24 1.502 16 1.502z" style="isolation:auto;mix-blend-mode:normal;filter-blend-mode:normal;filter-gaussianBlur-deviation:0" fill="none" stroke="#0f5a00" stroke-linecap="round" stroke-linejoin="round" opacity=".5" color="#000" overflow="visible"/><path d="M14.066 7.953A1.047 1.047 0 0 0 13.02 9v5.02H8a1.047 1.047 0 0 0-1.047 1.046v3.868A1.047 1.047 0 0 0 8 19.98h5.02V25a1.047 1.047 0 0 0 1.046 1.047h3.868A1.047 1.047 0 0 0 18.98 25v-5.02H24a1.047 1.047 0 0 0 1.047-1.046v-3.868A1.047 1.047 0 0 0 24 14.02h-5.02V9a1.047 1.047 0 0 0-1.046-1.047h-3.868z" style="isolation:auto;mix-blend-mode:normal" color="#000" overflow="visible" opacity=".15" fill="#206612" fill-rule="evenodd"/><path style="isolation:auto;mix-blend-mode:normal;filter-blend-mode:normal;filter-gaussianBlur-deviation:0" d="M14.067 9v6.067H8v3.866h6.067V25h3.866v-6.067H24v-3.866h-6.067V9z" color="#000" overflow="visible" fill="#206612" fill-rule="evenodd" opacity=".3"/><path d="M14.067 8v6.067H8v3.866h6.067V24h3.866v-6.067H24v-3.866h-6.067V8z" color="#000" overflow="visible" fill="#fff" fill-rule="evenodd"/></svg>
